X:17
T:Jack Tar Hornpipe (Craig 17)
T:Cuckoo's Nest, The
M:C
L:1/8
B:Empire Violin Collection of Hornpipes
H:Published by Thomas Craig
H:Music Publisher, &c.
H:George Street, Aberdeen, N.B.
Z:Peter Dunk December 2011
R:hornpipe
Q:1/4=140
K:G
B2 | e2e2 efge | d2B2B2 dB | ABcd faef | d2A2A2 (Bd) |!
e2 ef g2 fe | dBGB d2 (BA) | GFGE DEFA | G2E2E2 :|!
|:(GA) | BGEG BGEG | BAGF E2 (FG) | AFDF AFDF | AGFE D2 (EF) |!
GFGE g2(fe) | dBGB d2 (BA) | GFGE DEFA | G2E2E2 :|

